WiiU.svg

<?xml version="1.0" encoding="UTF-8" standalone="no"?>
<svg
   width="16"
   height="16"
   viewBox="0 0 16 16"
   fill="none"
   version="1.1"
   id="svg1"
   sodipodi:docname="WiiU.svg"
   inkscape:version="1.4 (e7c3feb100, 2024-10-09)"
   xmlns:inkscape="http://www.inkscape.org/namespaces/inkscape"
   xmlns:sodipodi="http://sodipodi.sourceforge.net/DTD/sodipodi-0.dtd"
   xmlns="http://www.w3.org/2000/svg"
   xmlns:svg="http://www.w3.org/2000/svg">
  <defs
     id="defs1" />
  <sodipodi:namedview
     id="namedview1"
     pagecolor="#ffffff"
     bordercolor="#000000"
     borderopacity="0.25"
     inkscape:showpageshadow="2"
     inkscape:pageopacity="0.0"
     inkscape:pagecheckerboard="0"
     inkscape:deskcolor="#d1d1d1"
     inkscape:zoom="4"
     inkscape:cx="-39.75"
     inkscape:cy="-34"
     inkscape:window-width="1920"
     inkscape:window-height="1051"
     inkscape:window-x="0"
     inkscape:window-y="-8"
     inkscape:window-maximized="1"
     inkscape:current-layer="svg1" />
  <path
     d="m 5.5,2.7543402 v 3.5752 c 0,1.67658 0.82342,2.7857098 2.5,2.7857098 1.67658,0 2.5,-1.1091298 2.5,-2.7857098 v -3.5752 c 1.1178,0.00645 2.1645,0.03772 2.5734,0.18079 0.9336,0.32666 1.6676,1.06066 1.9942,1.99421 0.1718,0.49089 0.1824,1.12898 0.1824,2.78769 v 0.28572 c 0,0.94215 -4e-4,1.61119 -0.0363,2.1375998 -0.0355,0.5196 -0.103,0.8452 -0.2111,1.1061 -0.3298,0.7964 -0.9625,1.4291 -1.7589,1.7589 -0.2609,0.1081 -0.5865,0.1756 -1.1061,0.2111 -0.5264,0.0359 -1.1955,0.0363 -2.1376,0.0363 H 6 c -0.94214,0 -1.61119,-4e-4 -2.13757,-0.0363 C 3.34279,13.18095 3.0172,13.11345 2.75628,13.00535 1.95994,12.67555 1.32725,12.04285 0.997392,11.24645 0.889313,10.98555 0.821775,10.65995 0.786321,10.14035 0.750406,9.6139402 0.75,8.9449002 0.75,8.0027502 v -0.28572 c 0,-1.65871 0.010609,-2.2968 0.182379,-2.78769 0.326661,-0.93355 1.060661,-1.66755 1.994211,-1.99421 0.40888,-0.14307 1.45558,-0.17434 2.57341,-0.18079 z"
     stroke="white"
     stroke-width="1.5"
     id="path1"
     style="stroke:#000000;stroke-opacity:1"
     sodipodi:nodetypes="cssscscssccccssccccssccc" />
  <path
     style="fill:#000000;stroke:#000000;stroke-width:1.5;stroke-dasharray:none;stroke-opacity:1"
     d="m 5.5,2.75 h 5"
     id="path2"
     sodipodi:nodetypes="cc" />
</svg>

<svg width="16" height="16" viewBox="0 0 16 16" fill="none" xmlns="http://www.w3.org/2000/svg">
<path d="M6.46429 2.75H9.53572V7.51429C9.53572 8.36244 8.84815 9.05 8 9.05C7.15185 9.05 6.46429 8.36244 6.46429 7.51429V2.75ZM4.96429 2.75159V7.51429C4.96429 9.19087 6.32342 10.55 8 10.55C9.67658 10.55 11.0357 9.19087 11.0357 7.51429V2.75159C12.1535 2.75804 12.6645 2.78931 13.0734 2.93238C14.007 3.25904 14.741 3.99304 15.0676 4.92659C15.2394 5.41748 15.25 6.05557 15.25 7.71428V8C15.25 8.94215 15.2496 9.61119 15.2137 10.1376C15.1782 10.6572 15.1107 10.9828 15.0026 11.2437C14.6728 12.0401 14.0401 12.6728 13.2437 13.0026C12.9828 13.1107 12.6572 13.1782 12.1376 13.2137C11.6112 13.2496 10.9421 13.25 10 13.25H6C5.05786 13.25 4.38881 13.2496 3.86243 13.2137C3.34279 13.1782 3.0172 13.1107 2.75628 13.0026C1.95994 12.6728 1.32725 12.0401 0.997392 11.2437C0.889313 10.9828 0.821775 10.6572 0.786321 10.1376C0.750406 9.61119 0.75 8.94215 0.75 8V7.71428C0.75 6.05557 0.760609 5.41748 0.932379 4.92659C1.25904 3.99304 1.99304 3.25904 2.92659 2.93238C3.33547 2.78931 3.84646 2.75804 4.96429 2.75159Z" stroke="white" stroke-width="1.5"/>
</svg>
